!!!OTL: "Neckerei" STEH NUR AUF TYROLERBU
!!!ARE: Europa, Mitteleuropa, Tirol
!!!SCT: Z1205
!!!YEM: Copyright 1995, estate of Helmut Schaffrath.
**kern
*ICvox
*Ivox
*M4/4
*k[f#c#]
*D:
{8.f#
16g
=1
4a
8.f#
16g
4a
8.f#
16g
=2
4a
8ff#
8ee
4dd}
{8.a
16a
=3
4a
8.gg
16ff#
4ee
8.ff#
16ee
=4
2.dd}
{8.f#
16g
=5
4a
8.f#
16g
4a
8.f#
16g
=6
4a
8ff#
8ee
4dd}
{8.a
16a
=7
4a
8.gg
16ff#
4ee
8.ff#
16ee
=8
2.dd}
{4a
=9
4g
8.ee
16dd
4cc#
4a
=10
4a
8.ff#
16ee
4dd}
{8a
8a
=11
8g
8a
8ee
8dd
4cc#
4a
=12
4a
8.ff#
16ee
4dd}
{8.f#
16g
=13
8a
8g
8f#
8g
8a
8g
8f#
8g
=14
4a
8.ff#
16ee
4dd}
{8.a
16a
=15
4a
8.gg
16ff#
4ee
8.ff#
16ee
=16
2.dd}
==
!!!AGN: Liebes - Lied
!!!ONB: ESAC (Essen Associative Code) Database: ZUCCAL
!!!AMT: simple quadruple
!!!AIN: vox
!!!EED: Helmut Schaffrath
!!!EEV: 1.0
*-
